X:121
T:Helmsley Sword Dance
Z:Jack Campin, http://www.campin.me.uk/
F:Jack Campin's Nine-Note Tunebook
% last edit 30-08-2013
S:John Browell, musician to Spen Valley Longsword, via Chris P on melodeon.net
M:C|
L:1/8
Q:1/4=120
Z:C.G.P.
K:D %Transposed from G
 A>DD>E   F>EF2|A>DD>E F>E   E2 |  A>DD>E  F>EF2|A>BA>G F>E   D2 ||
(3AAA A>G F>GA2|B>BB>G E>F (3GFE|(3DDD D>E F>GA2|B>BB>G E>F (3GFE|]


